X: 23314
T: Leg Of The Duck
R: jig
M: 6/8
K: Dmajor
|:(fga) (efg)|~f3 dBA|Bee e2 (d|B)ee (efg)|
fga efg|~f3 dBA|Bdd d2 A|1 Bdc d3:|2 Bdc d2 e||
|:~f3 ede|~f3 dBA|Bee e2 (d|B)ee (efg)|
~f3 ede|~f3 dBA|Bdd d2 (A|B)dc d2e:|

